buildsupport/Graphics/pictures/svg/fingers.svg

<?xml version="1.0" encoding="UTF-8"?>
<svg xmlns="http://www.w3.org/2000/svg" xmlns:xlink="http://www.w3.org/1999/xlink" width="480pt" height="925pt" viewBox="0 0 480 925" version="1.1">
<g id="surface1">
<path style="fill-rule:nonzero;fill:rgb(100%,100%,100%);fill-opacity:1;stroke-width:2;stroke-linecap:round;stroke-linejoin:round;stroke:rgb(0%,0%,0%);stroke-opacity:1;stroke-miterlimit:4;" d="M 425.440285 586.52985 C 423.952458 597.50913 418.367772 616.102766 406.57103 612.902255 L 407.093311 644.188856 L 357.072126 644.645733 L 358.289726 613.883987 C 346.427404 611.005187 336.708722 558.208998 345.387584 546.934092 C 349.588741 542.664108 380.108562 550.348814 376.137334 537.038512 C 367.828257 509.188765 364.049823 491.315224 362.515377 478.751102 C 356.429744 454.014918 377.752374 456.669232 379.75221 470.697259 C 386.146786 483.157833 390.889187 526.060812 394.765598 526.706606 C 401.266843 530.843795 411.504644 484.209915 412.825753 475.246269 C 417.099602 455.720698 435.321735 459.749596 432.05215 476.647728 C 433.821266 483.866862 415.013641 539.586116 416.39322 559.925845 C 424.813707 567.348913 424.83109 574.258983 425.441076 586.532221 Z M 425.440285 586.52985 " transform="matrix(4.943765,0,0,4.941837,-1662.835249,-2267.29661)"/>
<path style="fill:none;stroke-width:1;stroke-linecap:round;stroke-linejoin:round;stroke:rgb(0%,0%,0%);stroke-opacity:1;stroke-miterlimit:4;" d="M 381.31036 609.130252 C 378.522757 589.233962 386.002191 577.64683 399.328637 569.057065 " transform="matrix(4.943765,0,0,4.941837,-1662.835249,-2267.29661)"/>
<path style="fill-rule:nonzero;fill:rgb(100%,100%,100%);fill-opacity:1;stroke-width:2;stroke-linecap:round;stroke-linejoin:round;stroke:rgb(0%,0%,0%);stroke-opacity:1;stroke-miterlimit:4;" d="M 356.22984 537.790225 C 354.744383 527.666206 333.34432 526.814106 338.014028 543.770731 C 339.996481 549.95201 341.018128 554.21409 344.702535 563.799815 C 346.745829 568.268201 349.670125 571.170714 352.148784 574.326961 C 355.464197 578.933674 363.785917 576.626365 363.838856 572.316069 L 361.692845 560.91232 Z M 356.22984 537.790225 " transform="matrix(4.943765,0,0,4.941837,-1662.835249,-2267.29661)"/>
<path style="fill-rule:nonzero;fill:rgb(100%,100%,100%);fill-opacity:1;stroke-width:2;stroke-linecap:round;stroke-linejoin:round;stroke:rgb(0%,0%,0%);stroke-opacity:1;stroke-miterlimit:4;" d="M 373.490376 526.010224 C 372.828242 517.65364 353.766984 515.399291 353.556017 530.626422 L 358.842822 553.06004 L 363.870462 574.39652 C 366.162649 580.31221 376.897446 578.742386 377.852721 573.732546 L 375.947702 550.943228 Z M 373.490376 526.010224 " transform="matrix(4.943765,0,0,4.941837,-1662.835249,-2267.29661)"/>
<path style="fill-rule:nonzero;fill:rgb(100%,100%,100%);fill-opacity:1;stroke-width:2;stroke-linecap:round;stroke-linejoin:round;stroke:rgb(0%,0%,0%);stroke-opacity:1;stroke-miterlimit:4;" d="M 423.980113 570.920143 C 420.851962 560.923386 410.96182 558.12363 395.649761 543.641889 C 388.615174 536.987923 390.192286 521.132388 382.418921 516.517771 C 361.820847 519.609201 371.982005 544.120108 377.832968 553.985651 L 389.370544 575.53397 " transform="matrix(4.943765,0,0,4.941837,-1662.835249,-2267.29661)"/>
</g>
</svg>

<?xml version="1.0" encoding="UTF-8" standalone="no"?>
<!-- Created with Inkscape (http://www.inkscape.org/) -->
<svg
    xmlns:inkscape="http://www.inkscape.org/namespaces/inkscape"
    xmlns:rdf="http://www.w3.org/1999/02/22-rdf-syntax-ns#"
    xmlns="http://www.w3.org/2000/svg"
    xmlns:cc="http://creativecommons.org/ns#"
    xmlns:dc="http://purl.org/dc/elements/1.1/"
    xmlns:sodipodi="http://sodipodi.sourceforge.net/DTD/sodipodi-0.dtd"
    xmlns:svg="http://www.w3.org/2000/svg"
    xmlns:ns1="http://sozi.baierouge.fr"
    xmlns:xlink="http://www.w3.org/1999/xlink"
    id="svg4126"
    sodipodi:docname="Nouveau document 10"
    viewBox="0 0 97.092 186.53"
    version="1.1"
    inkscape:version="0.48.0 r9654"
  >
  <title
      id="title4149"
    >paix</title
  >
  <sodipodi:namedview
      id="base"
      bordercolor="#666666"
      inkscape:pageshadow="2"
      inkscape:window-y="101"
      fit-margin-left="0"
      pagecolor="#ffffff"
      fit-margin-top="0"
      inkscape:window-maximized="0"
      inkscape:zoom="0.78203125"
      inkscape:window-x="122"
      inkscape:window-height="770"
      showgrid="false"
      borderopacity="1.0"
      inkscape:current-layer="layer1"
      inkscape:cx="38.650755"
      inkscape:cy="91.523752"
      fit-margin-right="0"
      fit-margin-bottom="0"
      inkscape:window-width="1189"
      inkscape:pageopacity="0.0"
      inkscape:document-units="px"
  />
  <g
      id="layer1"
      inkscape:label="Calque 1"
      inkscape:groupmode="layer"
      transform="translate(-336.35 -459.12)"
    >
    <path
        id="path4099"
        d="m425.44 586.53c-1.4874 10.979-7.0724 29.573-18.869 26.372l0.52243 31.287-50.021 0.45689 1.217-30.762c-11.862-2.8788-21.581-55.675-12.902-66.95 4.201-4.2701 34.721 3.4147 30.75-9.895-8.3088-27.85-12.088-45.724-13.622-58.288-6.0853-24.736 15.237-22.082 17.237-8.0533 6.3946 12.46 11.137 55.363 15.013 56.009 6.5011 4.1371 16.739-42.497 18.06-51.46 4.274-19.526 22.496-15.497 19.227 1.4014 1.7685 7.2188-17.039 62.938-15.659 83.278 8.4202 7.4226 8.4378 14.333 9.0475 26.606z"
        sodipodi:nodetypes="ccccccsccccccc"
        style="stroke-linejoin:round;stroke:#000000;stroke-linecap:round;stroke-width:2;fill:#ffffff"
        inkscape:connector-curvature="0"
    />
    <path
        id="path4101"
        d="m381.31 609.13c-2.7874-19.896 4.6921-31.483 18.019-40.073"
        sodipodi:nodetypes="cc"
        style="stroke-linejoin:round;stroke:#000000;stroke-linecap:round;fill:none"
        inkscape:connector-curvature="0"
    />
    <path
        id="path4105"
        sodipodi:nodetypes="ccccccc"
        style="stroke-linejoin:round;stroke:#000000;stroke-linecap:round;stroke-width:2;fill:#ffffff"
        inkscape:connector-curvature="0"
        d="m356.23 537.79c-1.4853-10.124-22.886-10.976-18.216 5.9808 1.9821 6.1812 3.0044 10.443 6.6889 20.029 2.0426 4.4683 4.9672 7.3711 7.4461 10.527 3.315 4.6068 11.637 2.2993 11.69-2.0105l-2.146-11.404z"
    />
    <path
        id="path4107"
        d="m373.49 526.01c-0.66184-8.356-19.723-10.611-19.934 4.6162l5.2865 22.434 5.0276 21.336c2.2922 5.9157 13.027 4.3465 13.983-0.66368l-1.9054-22.789z"
        sodipodi:nodetypes="ccccccc"
        style="stroke-linejoin:round;stroke:#000000;stroke-linecap:round;stroke-width:2;fill:#ffffff"
        inkscape:connector-curvature="0"
    />
    <path
        id="path4109"
        d="m423.98 570.92c-3.128-9.9965-13.018-12.796-28.33-27.278-7.0348-6.6539-5.4579-22.51-13.231-27.124-20.598 3.0911-10.437 27.602-4.5861 37.468l11.538 21.548"
        sodipodi:nodetypes="csccc"
        style="stroke-linejoin:round;stroke:#000000;stroke-linecap:round;stroke-width:2;fill:#ffffff"
        inkscape:connector-curvature="0"
    />
  </g
  >
  <metadata
    >
    <rdf:RDF
      >
      <cc:Work
        >
        <dc:format
          >image/svg+xml</dc:format
        >
        <dc:type
            rdf:resource="http://purl.org/dc/dcmitype/StillImage"
        />
        <cc:license
            rdf:resource="http://creativecommons.org/licenses/publicdomain/"
        />
        <dc:publisher
          >
          <cc:Agent
              rdf:about="http://openclipart.org/"
            >
            <dc:title
              >Openclipart</dc:title
            >
          </cc:Agent
          >
        </dc:publisher
        >
        <dc:title
          >Signe de paix / peace sign</dc:title
        >
        <dc:date
          >2011-03-15T22:43:18</dc:date
        >
        <dc:description
        />
        <dc:source
          >https://openclipart.org/detail/127741/signe-de-paix--peace-sign-by-lmproulx</dc:source
        >
        <dc:creator
          >
          <cc:Agent
            >
            <dc:title
              >lmproulx</dc:title
            >
          </cc:Agent
          >
        </dc:creator
        >
        <dc:subject
          >
          <rdf:Bag
            >
            <rdf:li
              >finger</rdf:li
            >
            <rdf:li
              >hand</rdf:li
            >
            <rdf:li
              >line art</rdf:li
            >
            <rdf:li
              >pacifism</rdf:li
            >
            <rdf:li
              >peace</rdf:li
            >
            <rdf:li
              >sign</rdf:li
            >
          </rdf:Bag
          >
        </dc:subject
        >
      </cc:Work
      >
      <cc:License
          rdf:about="http://creativecommons.org/licenses/publicdomain/"
        >
        <cc:permits
            rdf:resource="http://creativecommons.org/ns#Reproduction"
        />
        <cc:permits
            rdf:resource="http://creativecommons.org/ns#Distribution"
        />
        <cc:permits
            rdf:resource="http://creativecommons.org/ns#DerivativeWorks"
        />
      </cc:License
      >
    </rdf:RDF
    >
  </metadata
  >
</svg
>
